!!!!SEGMENT: pl-kk--kk-i-2--042-003_lilius-franciszek--missa-pro-tempore-pashali-credo.krn
!!!cenid: 16xx:1664
!!!COM: Lilius, Franciszek
!!!COM-rismID:
!!!CDT: ~1600-1657
!!!CNT: Polish
!!!OPR: Missa pro tempore Pashali
!!!OTL: Credo
!!!OMV: 003
!!!PDT:
!!!AGN: Sacred; Mass
!!!SMS-siglum: PL-Kk
!!!SMS-shelfmark: Kk.I.2
!!!SMS-shelfwork: 042-003 M
!!!NIFC-rismSourceID: 300258060
!!!NIFC-islandoraID: pl-kk:750
!!!URL-pdf-islandora: https://repozytorium.nifc.pl/islandora/object/pl-kk%3A750/datastream/PDF/view
!!!URL-scan: https://polish.musicsources.pl/pl/lokalizacje/galeria/rekopisy/5828 @EN{Scan on Polish Music Herritage in Open Access Website} @PL{Skany w portalu Dziedzictwo Muzyki Polskiej w otwartym dostępie}
!!!ONB-nifc: Części mszy: Kyrie, Gloria, Credo, Sanctus, Agnus Dei; skany: C: 0066-0067; A: 0170-0171; T: 0270-0271; B: 0369-0370;
!!!AIN: 1 alto 1 bass 1 soprn 1 tenor
!!!key: G:mix
**kern	**text	**kern	**text	**kern	**text	**kern	**text
*part4	*part4	*part3	*part3	*part2	*part2	*part1	*part1
*staff4	*staff4	*staff3	*staff3	*staff2	*staff2	*staff1	*staff1
*I"BASVS	*	*I"TENOR	*	*I"ALTVS	*	*I"DISCANTVS	*
*I'B	*	*I'T	*	*I'A	*	*I'S	*
*Ibass	*	*Itenor	*	*Ialto	*	*Isoprn	*
*ICvox	*	*ICvox	*	*ICvox	*	*ICvox	*
*clefF4	*	*clefC4	*	*clefC4	*	*clefC3	*
*k[]	*	*k[]	*	*k[]	*	*k[]	*
*G:mix	*	*G:mix	*	*G:mix	*	*G:mix	*
*M2/1	*	*M2/1	*	*M2/1	*	*M2/1	*
*met(C|)	*	*met(C|)	*	*met(C)	*	*met(C)	*
=1-	=1-	=1-	=1-	=1-	=1-	=1-	=1-
2r	.	1D	Pat-	2r	.	2r	.
1D	Pat-	.	.	1F	Pat-	1A	Pa-
.	.	1A	-rem	.	.	.	.
2D/	-rem	.	.	2F/	-rem	2A/	-trem
=2-	=2-	=2-	=2-	=2-	=2-	=2-	=2-
1C	o-	1E	o-	1G	o-	1c	om-
1GG	-mni-	1G	-mni-	2B\	-mni-	2.d\	-ni-
.	.	.	.	2B\	-po-	.	.
.	.	.	.	.	.	4e\	-po-
=3-	=3-	=3-	=3-	=3-	=3-	=3-	=3-
1D	-po-	1F	-po-	0A	-ten-	2f\	-ten-
.	.	.	.	.	.	1d	.
1AA	-ten-	1E	-ten-	.	.	.	.
!	!	!	!	!	!	!LO:TX:b:t=P:problem=# below	!
.	.	.	.	.	.	2c#X/	.
=4-	=4-	=4-	=4-	=4-	=4-	=4-	=4-
1D,	-te(m)	1D	-tem	1F	-tem	1d,	-tem
2D/	fac-	2A/	fac-	2F/	fac-	2d\	fac-
4BB/	-to-	4B\	-to-	4G/	-to-	4d\	-to-
4BB/	-rem	4B\	-rem	4G/	-rem	4B/	-re(m)
=5-	=5-	=5-	=5-	=5-	=5-	=5-	=5-
2AA/	cae-	2c\	cae-	2A/	cae-	2e\	cae-
2GG#X/	-li	2B\	-li	2B\	-li	4e\	-li
.	.	.	.	.	.	4e\	et
2AA/	et	2A/	et	2c\	et	1e	ter-
!	!	!LO:TX:b:t=P:problem=# below	!	!	!	!	!
2E\	ter-	2G#X/	ter-	2B\	ter-	.	.
=6-	=6-	=6-	=6-	=6-	=6-	=6-	=6-
2AA,/	-rae	1A	-rae	4A/	-rae	2e\	-rae
.	.	.	.	2A/	Vi-	.	.
4D\	vi-	.	.	.	.	2r	.
4D\	-ſi-	.	.	4F/	-ſi-	.	.
4BB/	-bi-	4d\	Vi-	2.G/	-bi-	2r	.
4BB/	-li-	4d\	-ſi-	.	.	.	.
2GGny/	-um	4B\	-bi-	.	.	4g\	Vi-
.	.	4B\	-li-	4G/	-li-	4g\	-ſi-
=7-	=7-	=7-	=7-	=7-	=7-	=7-	=7-
2C/	o-	2c\	-um	2G/	-um	4e\	-bi-
.	.	.	.	.	.	4e\	-li-
2FF/	.	2A/	om-	1c	om-	2f\	-um
2C/	.	2Gny/	-ni-	.	.	2e\	.
2D/	-mni-	2F/	.	2A/	-ni-	2.d\	om-
=8-	=8-	=8-	=8-	=8-	=8-	=8-	=8-
1AA,	-um	1E	-u(m)	1A,	-um	.	.
.	.	.	.	.	.	4d\	-ni-
.	.	.	.	.	.	2c#X/	-um
2D/	et	2D/	et	2A\	et	2f\	et
2F\	in-	2A/	in-	2A\	in-	2f\	in-
=9-	=9-	=9-	=9-	=9-	=9-	=9-	=9-
2.C/	-vi-	2E/	-vi-	2.c\	-vi-	2.e\	-Vi-
.	.	2G/	-ſi-	.	.	.	.
4C/	-ſi-	.	.	4e\	-ſi-	4cny/	-ſi-
*custos:AA	*	*custos:E	*	*custos:c	*	*	*
2D/	-bi-	2F/	-bi-	2d\	-bi-	2A/	-bi-
!LO:LB:g=original	!	!LO:LB:g=original	!	!LO:LB:g=original	!	!	!
2AA/	-li-	2E/	-li-	2c#X\	-li-	2A/	-li-
=10-	=10-	=10-	=10-	=10-	=10-	=10-	=10-
*	*	*	*	*	*	*custos:g	*
1D,	-um	1D	-um	1d	-u(m)	1A	-u(m)
!	!	!	!	!	!	!LO:LB:g=original	!
2G\	Et	1C	et	1r	.	0r	.
2E\	in	.	.	.	.	.	.
=11-	=11-	=11-	=11-	=11-	=11-	=11-	=11-
2F\	v-	1D	in	2d\	et	.	.
2D/	-num	.	.	2B\	in	.	.
2.C/	D(o-	1E	v-	2cny\	v-	2g\	et
.	.	.	.	2c\	-num	2e\	in
4C/	-mi)-	.	.	.	.	.	.
=12-	=12-	=12-	=12-	=12-	=12-	=12-	=12-
1D	-num	1D	-num	2A/	Do-	2f\	V-
.	.	.	.	2B\	-mi-	2d\	-nu(m)
1C	Je-	2G/	Do-	1c	-num	2.e\	Do-
.	.	4E/	-mi-	.	.	.	.
.	.	4E/	-nu(m)	.	.	4e\	-mi-
=13-	=13-	=13-	=13-	=13-	=13-	=13-	=13-
1FF	-ſum	2F/	noſ-	2A/	Je-	2c/	-nu(m)
.	.	2A/	-trum	1c	-ſum	2f\	Je-
*lig	*	*	*	*	*	*	*
1GG	Chri-	2G/	Je-	.	.	2e\	.
.	.	2F/	-ſu(m)	2B-X\	Chr(is-	1d\	-ſum
=14-	=14-	=14-	=14-	=14-	=14-	=14-	=14-
1AA	.	1E	Chr(is-	1A	.	.	.
!	!	!	!	!	!	!LO:TX:b:t=P:problem=# below	!
.	.	.	.	.	.	2c#X/	Chr(is-
*Xlig	*	*	*	*	*	*	*
1D	-ſtum	1D,	-t)um	1F,	-t)um	2d,\	-t)um
.	.	.	.	.	.	2d\	fi-
=15-	=15-	=15-	=15-	=15-	=15-	=15-	=15-
0r	.	2D/	fi-	2r	.	4a\	-li-
.	.	.	.	.	.	4a\	-u(m)
.	.	4A/	-li-	2A/	fi-	2e\	De-
.	.	4A/	-u(m)	.	.	.	.
.	.	2E/	De-	4e\	-li-	2g\	-i
.	.	.	.	4e\	-um	.	.
.	.	2G/	-i	4Bny\	De-	4.d\	V-
.	.	.	.	4B\	-i	.	.
.	.	.	.	.	.	8e\	.
=16-	=16-	=16-	=16-	=16-	=16-	=16-	=16-
1r	.	4F/	v-	4d\	v-	4f\	.
.	.	4F/	-ni-	4d\	-ni-	4a\	-ni-
.	.	4E/	-ge-	4d\	-ge-	4g\	-ge-
!	!	!	!	!LO:TX:a:t=P:problem=# above	!	!	!
.	.	4E/	-ni-	4c#X\	-ni-	4g\	-ni-
4r	.	1D	-tum	1d	-tu(m)	1f	-tu(m)
2D/	et	.	.	.	.	.	.
4E\	ex	.	.	.	.	.	.
=17-	=17-	=17-	=17-	=17-	=17-	=17-	=17-
2F\	Pa-	2A/	et	1r	.	4cny/	et
.	.	.	.	.	.	4d/	ex
2E\	-tre	2B\	ex	.	.	1e	Pa-
2AA/	na-	2c\	Pa-	2A/	et	.	.
*	*	*custos:A	*	*	*	*	*
2GG/	.	2B\	-tre	2B\	ex	2e\	-tre
!	!	!LO:PB:g=original	!	!	!	!	!
=18-	=18-	=18-	=18-	=18-	=18-	=18-	=18-
2AA/	.	2A/	na-	4cny\	Pat-	1e	na-
.	.	.	.	4c\	-re	.	.
2E\	.	2G/	.	2B\	na-	.	.
2AA,/	-tum	1A	-tum	4A/	-tum	2c/	-tu(m)
.	.	.	.	2A/	an-	.	.
2D/	an-	.	.	.	.	2r	.
*	*	*	*	*custos:G	*	*	*
.	.	.	.	4F/	-te	.	.
!	!	!	!	!LO:LB:g=original	!	!	!
=19-	=19-	=19-	=19-	=19-	=19-	=19-	=19-
2BB/	-te	2d\	an-	2.G/	om-	2r	.
4GG/	om-	2B\	-te	.	.	2g\	an-
4GG/	-ni-	.	.	4G/	-ni-	.	.
2C,/	-a	2c\	om-	2G/	-a	2e\	-te
*custos:C	*	*	*	*	*	*	*
2FF/	ſae-	4A/	-ni-	1c\	ſae-	4f\	om-
*	*	*	*	*	*	*custos:e	*
.	.	4A/	-a	.	.	4f\	-ni-
!LO:LB:g=original	!	!	!	!	!	!LO:LB:g=original	!
=20-	=20-	=20-	=20-	=20-	=20-	=20-	=20-
2C/	.	2G/	ſae-	.	.	2e\	-a
2D/	-cu-	2F/	-cu-	2A/	-cu-	2.d\	ſae-
1AA,	-la	1E	-la	1A	-la	.	.
.	.	.	.	.	.	4d\	-cu-
.	.	.	.	.	.	2c/	-la
=21-	=21-	=21-	=21-	=21-	=21-	=21-	=21-
2AA/	De-	2C/	De-	2E/	De-	2A/	De-
4D\	-um	4D/	-um	4F/	-u(m)	4A/	-um
4D\	de	4D/	de	4F/	de	4B/	.
2C/	De-	2E/	De-	2G/	De-	2c/	de
2BB/	.	2D/	-o	2G/	-o	2d\	De-
=22-	=22-	=22-	=22-	=22-	=22-	=22-	=22-
2C/	-o	2G/	lu	2c\	lu-	2e\	-o
2C/	lu-	2E/	-men	2c\	-men	2g\	lu-
2D/	-men	2F/	de	1A	de	1f	-men
2F\	de	2A/	.	.	.	.	.
=23-	=23-	=23-	=23-	=23-	=23-	=23-	=23-
2C/	lu-	2G/	.	2c\	lu-	2e\	de
2D/	.	2F/	lu-	1A	.	1d	lu-
2.AA/	.	1E	-mi-	.	.	.	.
!	!	!	!	!	!	!LO:TX:b:t=P:problem=# below	!
.	.	.	.	2A/	-mi-	2c#X/	-mi-
4AA/	-mi-	.	.	.	.	.	.
=24-	=24-	=24-	=24-	=24-	=24-	=24-	=24-
2D,/	-ne	1D	-ne	2A/	-ne	2d\	-ne
1D	De-	.	.	1d	De-	1f	De-
.	.	2A/	De-	.	.	.	.
2E\	-um	2G/	-u(m)	2B\	-um	2g\	-u(m)
=25-	=25-	=25-	=25-	=25-	=25-	=25-	=25-
2F\	ve-	2A/	ve-	2A/	ve-	2f\	ve-
2A\	-ru(m)	2c\	-rum	2A/	-rum	2e\	-ru(m)
4D/	de	4d\	de	4A/	de	4f\	de
4D/	De-	4d\	De-	4A/	De-	4f\	De-
*	*	*custos:A	*	*	*	*	*
2GG/	-o	2d\	-o	2B\	-o	2g\	-o
!	!	!LO:LB:g=original	!	!	!	!	!
=26-	=26-	=26-	=26-	=26-	=26-	=26-	=26-
2D/	ve-	2A/	ve-	2d\	ve-	2f\	ve-
2D/	-ro	2A/	-ro	2d\	-ro	2f\	-ro
2.F\	ge-	2A/	ge-	00r	.	0r	.
.	.	2c\	-ni-	.	.	.	.
4F\	-ni-	.	.	.	.	.	.
=27-	=27-	=27-	=27-	=27-	=27-	=27-	=27-
2E\	-tum	2G/	-tum	.	.	.	.
1D	non	2F/	non	.	.	.	.
*	*	*lig	*	*	*	*	*
.	.	1E	fa-	.	.	2r	.
2C#X/	fa-	.	.	.	.	2.a\	Con-
=28-	=28-	=28-	=28-	=28-	=28-	=28-	=28-
*custos:D	*	*	*	*	*	*	*
2D/	-ctu(m)	1F	.	.	.	.	.
.	.	.	.	.	.	4a\	-ſub-
!LO:LB:g=original	!	!	!	!	!	!	!
2.D/	con-	.	.	.	.	4a\	-ſtan-
.	.	.	.	.	.	4a\	-ti-
*	*	*Xlig	*	*	*	*	*
.	.	1D	-ctu(m)	2.d\	Con-	2f\	-a-
4D/	-ſub-	.	.	.	.	.	.
4D/	-ſtan-	.	.	.	.	1d\	-lem
4D/	-ti-	.	.	4d\	-ſub-	.	.
=29-	=29-	=29-	=29-	=29-	=29-	=29-	=29-
2BB/	-a-	4G/	co(n)-	4d\	-ſtan-	.	.
.	.	4G/	-ſub-	4d\	-ti-	.	.
2GG/	-lem	4G/	-ſtan-	2B\	-a-	2.g\	Pa-
.	.	4G/	-ti-	.	.	.	.
*	*	*	*	*custos:A	*	*	*
2.Cny/	Pa-	2E/	-a-	1G	-le(m)	.	.
.	.	.	.	.	.	4f\	.
.	.	2C/	-lem	.	.	4e\	.
*	*	*	*	*	*	*custos:c	*
4BB/	.	.	.	.	.	4d\	.
!	!	!	!	!LO:LB:g=original	!	!LO:LB:g=original	!
=30-	=30-	=30-	=30-	=30-	=30-	=30-	=30-
2AA/	.	2F/	Pa-	2A/	Pa-	2cny/	.
2GG/	.	2G/	.	2B\	.	2e\	.
1FF	-tri	1A,	-tri	1c	-tri	1f	-tri
=31-	=31-	=31-	=31-	=31-	=31-	=31-	=31-
2F\	per	2A/	per	2c\	per	2f\	per
2F\	quem	2F/	que(m)	2c\	quem	2f\	quem
2C/	om-	2G/	om-	2c\	om-	2e\	o(m-
4D/	-ni-	4F/	-ni-	4A/	-ni-	4d\	-n)i-
4D/	-a	4F/	-a	4A/	-a	4d\	-a
=32-	=32-	=32-	=32-	=32-	=32-	=32-	=32-
!	!	!	!	!	!	!LO:TX:b:t=P:problem=# below	!
2.AA/	fa-	2E/	fa-	2.A/	fa-	4c#X/	fac-
.	.	.	.	.	.	2d\	.
.	.	2E/	-cta	.	.	.	.
!	!	!	!	!	!	!LO:TX:b:t=P:problem=# below	!
4AA/	-cta	.	.	4A/	-cta	4c#X/	-ta
1D,	ſunt	1D	ſunt	1F,	ſunt	1d,	ſunt
=33-	=33-	=33-	=33-	=33-	=33-	=33-	=33-
2D/	q(ui)	2D/	Qui	2A/	qui	2f\	q(ui)
2C/	p(ro)-	2E/	pro-	2c\	p(ro)-	2e\	p(ro)-
2BB/	-p(te)r	2G/	-pter	2d\	-p(te)r	2d\	-p(te)r
2C,/	nos	2E/	nos	2.e\	nos	2cny/	nos
=34-	=34-	=34-	=34-	=34-	=34-	=34-	=34-
4.FF/	ho-	2F/	ho-	.	.	2.A/	ho-
.	.	.	.	2d\	h(o-	.	.
8GG/	.	.	.	.	.	.	.
4AA/	.	2E/	-mi-	.	.	.	.
!	!	!	!	!LO:TX:a:t=P:problem=# above	!	!	!
4AA/	-mi-	.	.	4c#X\	-mi)-	4A/	-mi-
*	*	*custos:A	*	*	*	*	*
4D/	-nes	1D	-nes	1d	-nes	4F/	-nes
4D/	et	.	.	.	.	4f\	et
4E\	p(ro)-	.	.	.	.	4g\	p(ro)-
4E\	-p(te)r	.	.	.	.	4g\	-p(te)r
!	!	!LO:LB:g=original	!	!	!	!	!
=35-	=35-	=35-	=35-	=35-	=35-	=35-	=35-
2F\	noſ-	2A/	et	1r	.	2a\	noſ-
4G\	-tra(m)	4B\	p(ro)-	.	.	4g\	-tram
*custos:A	*	*	*	*	*	*	*
4G\	ſa-	4B\	-pter	.	.	4f\	ſa-
!LO:PB:g=original	!	!	!	!	!	!	!
4.A\	-lu-	2c\	noſ-	2A/	et	1e	-lu-
8B\	.	.	.	.	.	.	.
4c\	.	4A/	-tram	4A/	p(ro)-	.	.
4B\	.	4G/	ſa-	4B\	-p(te)r	.	.
=36-	=36-	=36-	=36-	=36-	=36-	=36-	=36-
4A\	.	2A/	-lu-	2cny\	noſ-	2e\	-tem
2AA,/	-tem	.	.	.	.	.	.
.	.	4E,/	-te(m)	4A/	-tram	2e\	de-
4C/	de-	4E/	de-	4G/	ſa-	.	.
1GG	-ſcen-	2G/	-ſcen-	2B\	-lu-	1d	-ſcen-
.	.	2G/	-dit	2B\	-tem	.	.
=37-	=37-	=37-	=37-	=37-	=37-	=37-	=37-
2C/	-dit	2E/	de	2c\	de-	2c/	-dit
2BB/	de	2D/	.	2.G/	-ſcen-	2d\	de
1AA	cae-	2C/	.	.	.	2e\	cae-
.	.	.	.	4G/	-dit	.	.
.	.	2D/	.	2F#X/	de	1c\	.
=38-	=38-	=38-	=38-	=38-	=38-	=38-	=38-
0GG	.	1D	cae-	0G	cae-	.	.
.	.	.	.	.	.	4B/	.
.	.	.	.	.	.	4A/	.
.	.	[1E;l	-lis	.	.	1B	.
=39-	=39-	=39-	=39-	=39-	=39-	=39-	=39-
0C;	-lis	0E]	.	0G;;l	-lis.	0c;	-lis.
!	!	!	!	!LO:PB:g=original	!	!LO:LB:g=original	!
=40||-	=40||-	=40||-	=40||-	=40||-	=40||-	=40||-	=40||-
*met(C|)	*	*met(C|)	*	*met(C)	*	*met(C)	*
2r	.	1D	Et	2r	.	2r	.
2D/	Et	.	.	1A	Et	1f	Et
1D	in-	1F	in-	.	.	.	.
.	.	.	.	2A/	in-	2d\	in-
=41-	=41-	=41-	=41-	=41-	=41-	=41-	=41-
1C	-car-	1G	-car-	1c	-car-	1e	-car-
2FF/	-na-	2F/	-na-	2A/	-na-	2.c/	-na-
2C/	-tus	2G/	-tus	2E/	-tus	.	.
.	.	.	.	.	.	4c/	-tus
=42-	=42-	=42-	=42-	=42-	=42-	=42-	=42-
1FF	eſt	1A	eſt	1Fny	eſt	1c	eſt
!	!	!	!	!	!	!LO:TX:b:t=P:problem=# below	!
1AA	de	1E	de	1A	de	1c#X	de
=43-	=43-	=43-	=43-	=43-	=43-	=43-	=43-
1D	Spi-	1F	Spi-	1A	Spi-	1d	Spi-
2D/	-ri-	2F/	-ri-	2A\	-ri-	2d\	-ri-
2D/	-tu	2F/	-tu	2B\	-tu	2d\	-tu
=44-	=44-	=44-	=44-	=44-	=44-	=44-	=44-
1C	San-	1G	San-	1c	San-	1e	San-
1C,	-cto	1G	-cto	1c	-cto	1e	-cto
=45-	=45-	=45-	=45-	=45-	=45-	=45-	=45-
*	*	*custos:c	*	*	*	*	*
1C	ex	1c	ex	1e	ex	1g	ex
*custos:G	*	*	*	*	*	*	*
!	!	!LO:LB:g=original	!	!	!	!	!
1C	Ma-	1c	Ma-	1e	Ma-	1g	Ma-
!LO:LB:g=original	!	!	!	!	!	!	!
=46-	=46-	=46-	=46-	=46-	=46-	=46-	=46-
2G\	-ri-	2B\	-ri-	2d\	-ri-	2g\	-ri-
2E\	-a	2G/	-a	2c\	-a	2g\	-a
2.D/	Vir-	2A/	Vir-	2.d\	Vir-	2.f\	Vir-
.	.	2B\	-gi-	.	.	.	.
4D/	-gi-	.	.	4d\	-gi-	4f\	-gi-
=47-	=47-	=47-	=47-	=47-	=47-	=47-	=47-
1C,	-ne	1c	-ne	1G	-ne	1e	-ne
1C	Et	1c	et	2r	.	1e	et
.	.	.	.	2c\	et	.	.
=48-	=48-	=48-	=48-	=48-	=48-	=48-	=48-
1FF	ho-	1A	ho-	1.c	ho-	1f	ho-
1GG	-mo	1G	-mo	.	.	2d\	-mo-
.	.	.	.	2B-X\	-mo	2.e\	fa-
=49-	=49-	=49-	=49-	=49-	=49-	=49-	=49-
1.AA	fa-	1F	fac-	1.A	fac-	.	.
.	.	.	.	.	.	4d/	.
.	.	.	.	.	.	1d	-ct(us)
.	.	1E	-t(us)	.	.	.	.
!	!	!	!	!	!	!LO:TX:b:t=P:problem=# below	!
2AA/	-ct(us)	.	.	2A/	-t(us)	2c#X/	.
=50-	=50-	=50-	=50-	=50-	=50-	=50-	=50-
0D;<	eſt	0D;	eſt.	0F;l	eſt.	0d;l	eſt.
!	!	!	!	!LO:LB:g=original	!	!LO:PB:g=original	!
=51||-	=51||-	=51||-	=51||-	=51||-	=51||-	=51||-	=51||-
*k[b-]	*	*	*	*k[b-]	*	*k[b-]	*
*met(C|)	*	*met(C|)	*	*	*	*met(C)	*
0r	.	1d	Cru-	0r	.	1r	.
.	.	1A	-ci-	.	.	1a	Cru-
=52-	=52-	=52-	=52-	=52-	=52-	=52-	=52-
1r	.	1c	-fi-	1A	Cru-	1e	-ci-
1D	Cru-	2d\	-xus	1D	-ci-	2f\	-fi-
.	.	1f\	e-	.	.	2f\	-xus
=53-	=53-	=53-	=53-	=53-	=53-	=53-	=53-
2AA/	-ci-	.	.	2F/	-fi-	2.a\	e-
2C/	-fi-	2e\	-ti-	2G/	-xus	.	.
.	.	.	.	.	.	4e\	-ti-
*	*	*clefC4	*	*	*	*	*
*	*	*k[b-]	*	*	*	*	*
2D/	-xus	1d	-am	2.F/	e-	1.f	-am
1F\	e-	.	.	.	.	.	.
.	.	.	.	4F/	-ti-	.	.
=54-	=54-	=54-	=54-	=54-	=54-	=54-	=54-
.	.	1c	pro	2A/	-am	.	.
2E\	-ti-	.	.	2G/	pro	2c/	pro
4D/	-am	1B-	no-	2F/	no-	1d	no-
4C/	pro	.	.	.	.	.	.
2BB-/	no-	.	.	2F/	-bis	.	.
=55-	=55-	=55-	=55-	=55-	=55-	=55-	=55-
2FF,/	-bis	1A	-bis	4r	.	2c/	-bis
.	.	.	.	4c\	ſub	.	.
2F\	ſub	.	.	2.A/	pon-	2c/	ſub
2.D/	pon-	1f	ſub	.	.	2.d\	pon-
.	.	.	.	4G/	-ti-	.	.
.	.	.	.	2F/	-o	.	.
4C/	-ti-	.	.	.	.	4e\	-ti-
=56-	=56-	=56-	=56-	=56-	=56-	=56-	=56-
*	*	*custos:c	*	*	*	*	*
4BB-/	-o	1d	Pon-	1B-	Pi-	2f\	-o
*custos:B	*	*	*	*	*	*	*
4BB-/	Pi-	.	.	.	.	.	.
!LO:LB:g=original	!	!	!	!	!	!	!
1B-	-la-	.	.	.	.	2d\	Pi-
!	!	!LO:LB:g=original	!	!	!	!	!
.	.	1c	-ti-	2F/	-la-	2f\	-la-
2A\	-to	.	.	4F/	-to	2c/	-to
.	.	.	.	4f\	ſub	.	.
=57-	=57-	=57-	=57-	=57-	=57-	=57-	=57-
2B-\	ſub	1B-	-o	2.d\	Pon-	4r	.
.	.	.	.	.	.	4f\	ſub
2B-\	Pon-	.	.	.	.	2.d\	Pon-
.	.	.	.	4c\	-ti-	.	.
2.G\	-ti-	1d	Pi-	1B-	-o	.	.
.	.	.	.	.	.	4c/	-ti-
.	.	.	.	.	.	2B-/	-o
4F\	-o	.	.	.	.	.	.
=58-	=58-	=58-	=58-	=58-	=58-	=58-	=58-
2E-X\	Pi-	1c	-la-	2G/	Pi-	1e-X	Pi-
2C/	.	.	.	2.A/	.	.	.
0D	-la-	1B-	-to	.	.	0d	-la-
.	.	.	.	4G/	.	.	.
.	.	.	.	1G/	-la-	.	.
=59-	=59-	=59-	=59-	=59-	=59-	=59-	=59-
.	.	1A	paſ-	.	.	.	.
!	!	!	!	!LO:TX:b:t=P:problem=# below	!	!	!
.	.	.	.	2F#X/	.	.	.
1GG	-to	1G	-sus	1G	-to	1B-	-to.
=60-	=60-	=60-	=60-	=60-	=60-	=60-	=60-
2r	.	1d	et	2r	.	2r	.
2BB-/	paſ-	.	.	1B-	pas-	2f\	pas-
1FF	-sus	1c	ſe-	.	.	1f	-sus
.	.	.	.	2A/	-s(us)	.	.
=61-	=61-	=61-	=61-	=61-	=61-	=61-	=61-
2FF/	et	1A	-pul-	2c\	et	2.f\	et
2FF/	ſe-	.	.	2.A/	ſe-	.	.
*	*	*	*	*	*	*custos:d	*
.	.	.	.	.	.	4eny\	ſe-
!	!	!	!	!	!	!LO:LB:g=original	!
2.BB-/	-pul-	1B-	-tus	.	.	1.d	-pul-
.	.	.	.	4G/	.	.	.
.	.	.	.	1G/	-pul-	.	.
4C/	.	.	.	.	.	.	.
=62-	=62-	=62-	=62-	=62-	=62-	=62-	=62-
2.D/	.	1A	.	.	.	.	.
!	!	!	!	!LO:TX:b:t=P:problem=# below	!	!	!
.	.	.	.	2F#X/	-tus	2d\	-tus
4D/	-tus	.	.	.	.	.	.
!	!	!	!	!	!	!LO:N:acc=#	!
1GG;l	eſt	1G;	eſt	1G;;l	eſt.	1Bn;l	eſt.
!LO:LB:g=original	!	!	!	!LO:LB:g=original	!	!	!
=63||-	=63||-	=63||-	=63||-	=63||-	=63||-	=63||-	=63||-
*k[]	*	*k[]	*	*k[]	*	*k[]	*
*M2/1	*	*	*	*M2/1	*	*M2/1	*
*	*	*	*	*met(C)	*	*met(C|)	*
!LO:TX:t=P:problem=brak kasownika przy kluczu	!	!LO:TX:t=P:problem=brak kasownika przy kluczu	!	!LO:TX:t=P:problem=brak kasownika przy kluczu	!	!LO:TX:t=P:problem=brak kasownika przy kluczu	!
2D/	Et	2d\	Et	2A/	Et	2f\	Et
4AA/	re-	4c\	re-	4A/	re-	4e\	re-
4AA/	-ſur-	4c\	-ſur-	4A/	-ſur-	4e\	-ſur-
2D/	-re-	2d\	-re-	2A/	-re-	2f\	-re-
2D/	-xit	2A/	-xit	2A/	-xit	2f\	-xit
=64-	=64-	=64-	=64-	=64-	=64-	=64-	=64-
2GG/	ter-	2d\	ter-	2B\	ter-	2g\	ter-
4AA/	-ti-	4c\	-ti-	4A/	-ti-	4e\	-ti-
!	!	!	!	!LO:TX:b:t=P:problem=# below	!	!	!
4E\	-a	4B\	-a	4G#X/	-a	4e\	-a
2AA/	di-	2c\	di-	2A/	di-	2e\	di-
2AA,/	-e	2A/	-e	2E/	-e	2e\	-e
=65-	=65-	=65-	=65-	=65-	=65-	=65-	=65-
2C/	ſe-	2G/	ſe-	2c\	ſe-	2e\	ſe-
2FF/	-cun-	2A/	-cu(n)-	2c\	-cun-	2f\	-cun-
4C/	-dum	4G/	-du(m)	4c\	-du(m)	4e\	-du(m)
4D/	ſcrip-	4F/	ſcrip-	4A/	ſcrip-	4d\	ſcrip-
!	!	!	!	!	!	!LO:TX:b:t=P:problem=# below	!
2AA/	-tu-	2E/	-tu-	2A/	-tu-	2c#X/	-tu-
=66-	=66-	=66-	=66-	=66-	=66-	=66-	=66-
*	*	*custos:A	*	*	*	*	*
2D,/	-ras	1D	-ras	1A	-ras	2d,\	-ras
4D/	et	.	.	.	.	4f\	et
4C/	aſ-	.	.	.	.	4e\	aſ-
!	!	!LO:PB:g=original	!	!	!	!	!
2D/	-ce(n)-	2A/	et	1r	.	2f\	-ce(n)-
4E\	-dit	2G/	aſ-	.	.	4g\	-dit
4E\	in	.	.	.	.	4g\	in
=67-	=67-	=67-	=67-	=67-	=67-	=67-	=67-
2F\	cae-	2A/	-cen-	2A/	et	2f\	cae-
2G,\	-lu(m)	2B\	-dit	2Gny/	aſ-	2d\	.
2D/	in	2d\	in	2A/	-ce(n)-	2.d\	.
2GG/	cae-	2d\	cae-	4B\	-dit	.	.
.	.	.	.	4B\	in	4e\	.
=68-	=68-	=68-	=68-	=68-	=68-	=68-	=68-
1D,	-lu(m)	1A	-lum	2d\	cae-	1f,	-lu(m)
.	.	.	.	2d,\	-lu(m)	.	.
2F\	-ſe-	2A/	-ſe-	2c\	-ſe-	2f\	-ſe-
4FF/	-det	4c\	-det	4A/	-det	4f\	-det
4FF/	ad	4c\	ad	4A/	ad	4f\	ad
=69-	=69-	=69-	=69-	=69-	=69-	=69-	=69-
2C/	dex-	2G/	dex-	2c\	dex-	2e\	dex-
4D/	-te-	4F/	-te-	4A/	-te-	4d\	-te-
*	*	*	*	*	*	*custos:c	*
4D/	-ra(m)	4F/	-ram	4A/	-ra(m)	4d\	-ra(m)
!	!	!	!	!	!	!LO:LB:g=original	!
!	!	!	!	!	!	!LO:TX:b:t=P:problem=# below	!
1AA	Pa-	1E	Pa-	1A	P(at)-	4c#X/	Pa-
.	.	.	.	.	.	2d\	.
!	!	!	!	!	!	!LO:TX:b:t=P:problem=# below	!
.	.	.	.	.	.	4c#X/	.
=70-	=70-	=70-	=70-	=70-	=70-	=70-	=70-
*	*	*lig	*	*	*	*	*
1D	-tris	1F	-tris	1A,	-ris	4d\	-tris
.	.	.	.	.	.	4d\	et
.	.	.	.	.	.	4f\	i-
.	.	.	.	.	.	4f\	-te-
*custos:GG	*	*	*	*	*	*	*
0r	.	1D,	.	2A/	et	2a\	-rum
.	.	.	.	4B\	i-	2d\	Ven-
.	.	.	.	4B\	-te-	.	.
*	*	*Xlig	*	*	*	*	*
=71-	=71-	=71-	=71-	=71-	=71-	=71-	=71-
.	.	2D/	Et	2d\	-ru(m)	2f\	-tu-
.	.	4E/	i-	1B	ven-	2e\	-r(us)
.	.	4E/	-te-	.	.	.	.
!LO:LB:g=original	!	!	!	!	!	!	!
2GG/	Et	2G/	-rum	.	.	2d\	eſt
4AA/	i-	2E/	Ven-	4c\	.	2cny/	cu(m)
*	*	*	*	*custos:d	*	*	*
4C/	-te-	.	.	2e\	-tu-	.	.
=72-	=72-	=72-	=72-	=72-	=72-	=72-	=72-
4.FF/	-rum	2F/	-tu-	.	.	2.A/	glo-
!	!	!	!	!LO:LB:g=original	!	!	!
.	.	.	.	2d\	-rus	.	.
8GG/	ven-	.	.	.	.	.	.
4AA/	-tu-	2E/	-r(us)	.	.	.	.
!	!	!	!	!LO:TX:a:t=P:problem=# above	!	!	!
4AA/	-r(us)	.	.	4c#X\	.	4A/	-ri-
4D/	eſt	1D	eſt	2d\	eſt	4F/	-a
4D/	cu(m)	.	.	.	.	4f\	cu(m)
4E\	gl(o-	.	.	2r	.	4g\	glo-
4E\	-ri)-	.	.	.	.	4g\	-ri-
=73-	=73-	=73-	=73-	=73-	=73-	=73-	=73-
2F\	-a	2A/	cum	1r	.	2a\	-a
4G\	iu-	4B\	gl(o-	.	.	4g\	iu-
4G\	-di-	4B\	-ri)-	.	.	4f\	-di-
4.A\	-ca-	2c\	-a	2A/	cum	1e	-ca-
8B\	.	.	.	.	.	.	.
4c\	.	4A/	iu-	4A/	gl(o-	.	.
4B\	.	4G/	-di-	4B\	-ri)-	.	.
=74-	=74-	=74-	=74-	=74-	=74-	=74-	=74-
*	*	*custos:E	*	*	*	*	*
4A,\	re	2A/	-ca-	2cny\	-a	2e\	-re
2AA/	Vi-	.	.	.	.	.	.
!	!	!LO:LB:g=original	!	!	!	!	!
.	.	4E/	-re	4A/	iu-	2e\	vi-
4C/	.	4E/	ui-	4G/	-di-	.	.
2GG,/	-uos	2G/	-vos	4B\	-ca-	2d\	-vos
.	.	.	.	4B\	-re	.	.
4C/	et	4E/	et	4G/	Vi-	2c/	et
4BB/	.	4D/	.	4G/	-vos	.	.
=75-	=75-	=75-	=75-	=75-	=75-	=75-	=75-
!	!	!	!	!LO:TX:b:t=P:problem=# below	!	!	!
2AA/	mor-	2C/	mor-	2F#X/	et	2.c/	mor-
2GG/	-tu-	2D/	-tu-	4G/	mor-	.	.
.	.	.	.	4G/	-tu-	4B/	-tu-
1C,	-os	1E	-os	1G,	-os	1c,	-os
=76-	=76-	=76-	=76-	=76-	=76-	=76-	=76-
2GG/	cu-	2D/	cu-	2.G/	cu-	2B/	cu-
2C/	-ius	2E/	-i(us)	.	.	2c/	-i(us)
.	.	.	.	4G/	-i(us)	.	.
2BB/	reg-	2G/	reg-	2G/	reg-	2d\	reg-
2C,/	-ni	2E/	-ni	2G/	-ni	4c/	-ni
.	.	.	.	.	.	4c/	non
=77-	=77-	=77-	=77-	=77-	=77-	=77-	=77-
*	*	*	*	*	*	*custos:d	*
4F\	non	4F/	non	4A/	non	4A/	e-
!	!	!	!	!	!	!LO:LB:g=original	!
4D\	e-	4F/	e-	4Fny/	e-	4d\	-rit
4AA/	-rit	4E/	-rit	4A/	-rit	4d\	fi-
4AA/	fi-	4E/	fi-	4A/	fi-	4c#X/	.
2D,/	-nis	1D	-nis	2A,/	-nis.	2d\	-nis.
*custos:AA	*	*	*	*	*	*	*
1D\	et	.	.	1d\	Et	1f\	Et
=78-	=78-	=78-	=78-	=78-	=78-	=78-	=78-
.	.	2A/	Et	.	.	.	.
!LO:PB:g=original	!	!	!	!	!	!	!
2AA/	in	2A/	in	2c#X\	in	2e\	in
4D/	Spi-	4F/	Spi-	4d\	Spi-	4f\	Spi-
4D/	-ri-	4F/	-ri-	4d\	-ri-	4f\	-ri-
2D,/	-tum	2A/	-tum	2d\	-tu(m)	2f\	-tu(m)
=79-	=79-	=79-	=79-	=79-	=79-	=79-	=79-
4C/	San-	4c\	Sa(n)-	4e\	S(an-	4g\	S(an-
4FF/	-ctu(m)	4A\	-ctu(m)	4cny\	-ctum)	4f\	-ctum)
4BB-X/	Do-	4B-X\	D(o-	4d\	do-	4f\	do-
4C/	-mi-	4G/	-mi)-	4c\	-mi-	4e\	-mi-
2F\	-num	1A	-num	2c\	-nu(m)	2f,\	-nu(m)
1D\	et	.	.	2r	.	1f,\	et
=80-	=80-	=80-	=80-	=80-	=80-	=80-	=80-
.	.	2d\	et	2.A/	et	.	.
2D/	Vi-	2d\	Vi-	.	.	2f\	vi-
.	.	.	.	4A/	Vi-	.	.
*	*	*	*	*custos:B	*	*	*
2D/	-ui-	2A\	-vi-	2d\	-ui-	2f\	-vi-
!	!	!	!	!LO:LB:g=original	!	!	!
2GG/	-fi-	2d\	-fi-	2.B\	-fi-	2g\	-fi-
=81-	=81-	=81-	=81-	=81-	=81-	=81-	=81-
2AA/	-can-	2c\	-ca(n)-	.	.	1e	-ca(n)-
.	.	.	.	2A/	-can-	.	.
2E\	.	2Bny\	.	.	.	.	.
.	.	.	.	4G#X/	.	.	.
*	*	*custos:A	*	*	*	*	*
1AA	-tem	1A	-tem	1A	-tem	1e	-te(m)
!	!	!LO:LB:g=original	!	!	!	!	!
=82-	=82-	=82-	=82-	=82-	=82-	=82-	=82-
1FF	qui	2A/	qui	2r	.	1f	qui
.	.	2c\	ex	2A/	qui	.	.
2FF/	ex	4c\	Pa-	2A/	ex	2f\	ex
.	.	4A\	.	.	.	.	.
4BB-X/	Pa-	4B-X\	.	4d\	Pa-	4d\	Pa-
4C/	-tre	4G/	-tre	4c\	-tre	4e\	-tre
=83-	=83-	=83-	=83-	=83-	=83-	=83-	=83-
4F\	fi-	2F/	fi-	4A/	fi-	4f\	fi-
4D/	-li-	.	.	2d\	-li-	4f\	-li-
2AA/	-o-	2E/	-li-	.	.	2a\	-o-
.	.	.	.	4c#X\	-o-	.	.
1D	-q(ue)	1D	-o-	2d\	-q(ue)	1f	-q(ue)
.	.	.	.	2.A/	p(ro)-	.	.
=84-	=84-	=84-	=84-	=84-	=84-	=84-	=84-
4AA/	pro-	4C/	-que	.	.	4e\	pro-
4BB-X/	.	4D/	pro-	4F/	.	4d\	.
2AA/	-ce-	2E/	-ce-	2A/	-ce-	4d\	-ce-
.	.	.	.	.	.	4c#X/	.
2D,/	-dit	1D	-dit	1F,	-dit	1d	-dit
2D/	qui	.	.	.	.	.	.
=85-	=85-	=85-	=85-	=85-	=85-	=85-	=85-
1F	cum	2D/	qui	2.A/	qui	2.a\	qui
.	.	2F/	cu(m)	.	.	.	.
.	.	.	.	4A/	cu(m)	4a\	cu(m)
2.C/	Pa-	2E/	Pa-	2cny\	Pa-	2g\	Pa-
.	.	2C/	-tre	2Gny/	-tre	2e\	-tre
*custos:AA	*	*	*	*	*	*	*
4C/	-tre	.	.	.	.	.	.
!LO:LB:g=original	!	!	!	!	!	!	!
=86-	=86-	=86-	=86-	=86-	=86-	=86-	=86-
2AA/	et	2C/	et	2c\	et	2e\	et
4GG/	fi-	4D/	fi-	4B-X\	fi-	4g\	Fi-
*	*	*	*	*	*	*custos:c	*
4GG/	-li-	4E/	-li-	4B-X\	-li-	4g\	-li-
!	!	!	!	!	!	!LO:LB:g=original	!
2FF/	-o	1F	-o	1A	-o	1cny	-o
1F\	ſi-	.	.	.	.	.	.
=87-	=87-	=87-	=87-	=87-	=87-	=87-	=87-
.	.	2A/	ſi-	0r	.	0r	.
2F\	-mul	2c\	-mul	.	.	.	.
2G\	a-	2Bny\	a-	.	.	.	.
2F\	-do-	2A/	-do-	.	.	.	.
=88-	=88-	=88-	=88-	=88-	=88-	=88-	=88-
1E	-ra-	2B\	-ra-	1r	.	1r	.
.	.	2c#X,\	-tur	.	.	.	.
1D	-tur	1d	et	2r	.	2a\	et
!	!	!	!	!	!	!LO:TX:a:t=P:problem=# above	!
.	.	.	.	2d\	et	4f#X\	con-
!	!	!	!	!	!	!LO:TX:a:t=P:problem=# above	!
.	.	.	.	.	.	4f#\	-glo-
=89-	=89-	=89-	=89-	=89-	=89-	=89-	=89-
2r	.	2d\	con-	4Bny\	con-	4d\	-ri-
.	.	.	.	4B\	-glo-	4d\	-fi-
2G\	et	2B\	-glo-	2.G/	-ri-	1g	-ca-
*	*	*custos:A	*	*	*	*	*
4E\	con-	2cny\	-ri-	.	.	.	.
4C/	-glo-	.	.	4G/	-fi-	.	.
!	!	!LO:LB:g=original	!	!	!	!	!
2F\	-ri-	2A/	-fi-	4A\	-ca-	2fny\	-t(ur)
.	.	.	.	4B\	.	.	.
=90-	=90-	=90-	=90-	=90-	=90-	=90-	=90-
2E\	-fi-	2G/	-ca-	2c\	.	2r	.
1D	-ca-	2F/	.	2d\	.	4d\	qui
.	.	.	.	.	.	4d\	lo-
.	.	1E,	-tur	1A	.	2e\	-cu-
2C#X/	.	.	.	.	.	2e\	-t(us)
=91-	=91-	=91-	=91-	=91-	=91-	=91-	=91-
*	*	*	*	*custos:G	*	*	*
2D/	-tur	2D/	qui	2A/	-tur	4f\	eſt
.	.	.	.	.	.	4f\	p(er)
!	!	!	!	!LO:PB:g=original	!	!	!
4E\	qui	[>4C/	lo-	2r	.	2.e\	pro-
4E\	lo-	4C/]	.	.	.	.	.
2F\	-cu-	2D/	-cu-	2r	.	.	.
.	.	.	.	.	.	2d\	-phe-
2G\	-tus	2E/	-t(us)	4G/	qui	.	.
.	.	.	.	4G/	lo-	4c#X/	.
=92-	=92-	=92-	=92-	=92-	=92-	=92-	=92-
2F\	eſt	2D/	es[t]	2A/	-cu-	1d	-tas
2D/	per	2F/	per	2B\	-tus	.	.
!	!	!	!	!LO:TX:a:t=P:problem=# above	!	!	!
2AA/	pro-	2A/	pro-	4c#X\	eſt	0r	.
!	!	!	!	!LO:TX:a:t=P:problem=# above	!	!	!
.	.	.	.	4c#X\	per	.	.
2BB-X/	.	4G/	.	2d\	pro-	.	.
.	.	4F/	.	.	.	.	.
=93-	=93-	=93-	=93-	=93-	=93-	=93-	=93-
2GG/	-phe-	1E	-phe-	2d\	-phe-	.	.
!	!	!	!	!LO:TX:a:t=P:problem=# above	!	!	!
2AA/	.	.	.	2c#X\	.	.	.
1D,	-tas	1D	-tas,	1d,	-tas	2r	.
.	.	.	.	.	.	1f\	et
=94-	=94-	=94-	=94-	=94-	=94-	=94-	=94-
2F\	Et	2A/	Et	2cny\	et	.	.
4Cny/	v-	4G/	v-	4c\	v-	4e\	v-
4C/	-na(m)	4G/	-nam	4c\	-na(m)	4e\	-na(m)
*custos:E	*	*	*	*	*	*	*
2F\	San-	2A/	San-	2c\	S(an)-	2a\	San-
!LO:LB:g=original	!	!	!	!	!	!	!
2E\	-ctam	2c\	-cta(m)	2G/	-cta(m)	2g\	-cta(m)
=95-	=95-	=95-	=95-	=95-	=95-	=95-	=95-
!	!	!	!	!	!	!LO:TX:a:t=P:problem=# above	!
2D/	Ca-	2d\	Ca-	2A/	Ca-	2f#X\	Ca-
4GG/	-tho-	4d\	-tho-	4B\	-tho-	4g\	-tho-
4GG/	-li-	4d\	-li-	4G/	-li-	4d\	-li-
!	!	!	!	!LO:TX:b:t=P:problem=# below	!	!	!
2.D/	-cam	1A,	-ca(m)	2F#X/	-ca(m)	4d,\	-ca(m)
.	.	.	.	.	.	4d\	et
.	.	.	.	4r	.	4fny\	A-
4D/	et	.	.	4Fny/	et	4f\	-po-
=96-	=96-	=96-	=96-	=96-	=96-	=96-	=96-
4F\	a-	2A/	et	4A/	A-	4.cny/	-ſto-
4F\	-po-	.	.	4A/	-po-	.	.
.	.	.	.	.	.	8d/	-li-
4.C/	-ſto-	4c\	A-	4.E/	-ſto-	2.e\	-ca(m)
.	.	4c\	-po-	.	.	.	.
8D/	-li-	.	.	8F/	.	.	.
2E\	-ca(m)	2G/	-ſto-	4G/	-li-	.	.
.	.	.	.	4E/	-ca(m)	4B/	Ec-
2D/	Ec-	4F/	-li-	2.A/	Ec-	2.d\	-cle-
.	.	4F/	-ca(m)	.	.	.	.
=97-	=97-	=97-	=97-	=97-	=97-	=97-	=97-
4AA/	cle-	2E/	Ec-	.	.	.	.
4AA/	-ſi-	.	.	4A/	-cle-	4c#X/	-ſi-
*	*	*	*	*	*	*custos:d	*
2D/	-a(m)	4F/	-cle-	4.A/	-ſi-	2d\	-am
.	.	4F/	-ſi-	.	.	.	.
.	.	.	.	8G/	.	.	.
!	!	!	!	!	!	!LO:PB:g=original	!
00r	.	1D,	-a(m)	1F	-am	1d	Con-
=98-	=98-	=98-	=98-	=98-	=98-	=98-	=98-
.	.	2D/	Con-	2r	.	4a\	-fi-
.	.	.	.	.	.	4a\	-te-
.	.	4A/	-fi-	2A/	Con-	2e\	-or
.	.	4A/	-te-	.	.	.	.
*	*	*custos:G	*	*	*	*	*
.	.	2E/	-or	4e\	-fi-	1g	V-
*	*	*	*	*custos:B	*	*	*
.	.	.	.	4e\	-te-	.	.
!	!	!LO:LB:g=original	!	!LO:LB:g=original	!	!	!
.	.	2G/	V-	4B\	-or	.	.
.	.	.	.	4B\	v-	.	.
=99-	=99-	=99-	=99-	=99-	=99-	=99-	=99-
.	.	4G/	-num	4d\	-nu(m)	4g\	-num
.	.	4F/	ba-	4d\	ba-	4a\	ba-
.	.	2E/	-pti-	4d\	-pti-	2g\	-pti-
!	!	!	!	!LO:TX:a:t=P:problem=# above	!	!	!
.	.	.	.	4c#X\	.	.	.
!	!	!	!	!	!	!LO:TX:a:t=P:problem=# above	!
4D/	in	1D	-ſma	1d	-ſma	2f#X\	-ſma
4D/	re-	.	.	.	.	.	.
4E\	-miſ-	.	.	.	.	4g\	in
4E\	-si-	.	.	.	.	4g\	re-
=100-	=100-	=100-	=100-	=100-	=100-	=100-	=100-
2F\	-o-	4A/	in	1r	.	4a\	-miſ-
.	.	4A/	re-	.	.	4a\	-si-
2E\	-nem	4B\	-miſ-	.	.	2g#X\	-o-
.	.	4B\	-si-	.	.	.	.
2A\	pec-	2c\	-o-	4A/	in	2a\	-ne(m)
.	.	.	.	4A/	re-	.	.
2G#X\	-ca-	2B\	-nem	4B\	-miſ-	2.e\	pec-
.	.	.	.	4B\	-si-	.	.
=101-	=101-	=101-	=101-	=101-	=101-	=101-	=101-
2A\	-to-	4A/	pec-	4cny\	-o-	.	.
.	.	4A/	-ca-	4c\	-nem	4e\	-ca-
2E\	.	2G#X/	-to-	4B\	pec-	2e\	-to-
.	.	.	.	4B\	-ca-	.	.
2AA/	-rum	1A,	-ru(m)	2A/	-to-	1e,	-ru(m)
4A\	et	.	.	2A/	-ru(m)	.	.
4A\	ex-	.	.	.	.	.	.
=102-	=102-	=102-	=102-	=102-	=102-	=102-	=102-
2F#X\	-pec-	2d\	et	1r	.	4a\	et
.	.	.	.	.	.	4a\	ex-
2D/	-to	2d\	ex-	.	.	2f#X\	-pec-
2.Gny\	re	2B\	-pec-	4d\	et	2d\	-to
.	.	.	.	4d\	ex-	.	.
.	.	2B\	-to	2B\	-pec-	2.gny\	re-
4G\	-ſur-	.	.	.	.	.	.
=103-	=103-	=103-	=103-	=103-	=103-	=103-	=103-
4E\	-re-	2c\	re-	2G/	-to	.	.
*custos:C	*	*	*	*	*	*	*
4E\	-cti-	.	.	.	.	4g\	-ſur-
!LO:LB:g=original	!	!	!	!	!	!	!
2C/	-o-	2c\	-ſur-	2.c\	re-	4e\	-re-
.	.	.	.	.	.	4e\	-cti-
1Fny	-nem	2A/	-re-	.	.	2.cny/	-o-
.	.	.	.	4c\	-ſur-	.	.
.	.	2A/	-cti-	4A/	-re-	.	.
.	.	.	.	4F/	-cti-	4d\	.
=104-	=104-	=104-	=104-	=104-	=104-	=104-	=104-
1C	mor-	1Gny	-o-	2E/	-o-	4e\	.
.	.	.	.	.	.	4fny\	.
.	.	.	.	2C/	-nem	4g\	.
.	.	.	.	.	.	4e\	.
1FF	-tu-	1A	-nem	1.c	mor-	2f\	-nem
.	.	.	.	.	.	2f\	mor-
=105-	=105-	=105-	=105-	=105-	=105-	=105-	=105-
1GG	-o-	1.G	mor-	.	.	2e\	-tu-
*	*	*	*	*	*	*custos:c	*
.	.	.	.	2B-X\	-tu-	2d/	-o-
!	!	!	!	!	!	!LO:LB:g=original	!
!	!	!	!	!	!	!LO:TX:b:t=P:problem=# below	!
0AA	.	.	.	0A	-o-	2c#X/	.
.	.	2F/	-tu-	.	.	1d\	.
=106-	=106-	=106-	=106-	=106-	=106-	=106-	=106-
.	.	1E	-o-	.	.	.	.
!	!	!	!	!	!	!LO:TX:b:t=P:problem=# below	!
.	.	.	.	.	.	2c#X/	.
2D,/	-rum	1D	-rum	1F	-rum	2d\	-rum
2D/	et	.	.	.	.	2.d\	et
=107-	=107-	=107-	=107-	=107-	=107-	=107-	=107-
2A\	vi-	2D/	et	2r	.	.	.
.	.	.	.	.	.	2a\	Vi-
4AA/	-tam	2A/	Vi-	2A/	et	.	.
4AA/	ven-	.	.	.	.	4e\	-tam
2C/	-tu-	2E/	-tam	2e\	Vi-	4e\	ven-
.	.	.	.	.	.	2g\	-tu-
2GG/	-ri	2G/	Ven-	4Bny\	-ta(m)	.	.
*	*	*	*	*custos:d	*	*	*
.	.	.	.	4B\	ven-	4d\	.
!	!	!	!	!LO:LB:g=original	!	!	!
=108-	=108-	=108-	=108-	=108-	=108-	=108-	=108-
1D	Sae-	2F/	-tu-	4d\	-tu-	4.f\	-ri
.	.	.	.	4A/	-ri	.	.
.	.	.	.	.	.	8g\	.
*	*	*custos:E	*	*	*	*	*
.	.	2F/	-ri	1d	Sae-	1a	Sae-
!	!	!LO:PB:g=original	!	!	!	!	!
2.AA/	-cu-	2.E/	Sae-	.	.	.	.
.	.	.	.	2c#X\	-cu-	2a\	-cu-
4AA/	-li	4E/	-cu-	.	.	.	.
=109-	=109-	=109-	=109-	=109-	=109-	=109-	=109-
2D,/	.	1D	-li	1d	-li	1f	-li
2F\	A-	.	.	.	.	.	.
*	*	*lig	*	*	*	*	*
4E\	.	1C	A-	2r	.	1r	.
4F\	.	.	.	.	.	.	.
4G\	.	.	.	2cny\	A-	.	.
4E\	.	.	.	.	.	.	.
=110-	=110-	=110-	=110-	=110-	=110-	=110-	=110-
4F\	.	1D	.	2A/	.	2r	.
4G\	.	.	.	.	.	.	.
2A\	.	.	.	4d\	.	2f\	A-
.	.	.	.	4c\	.	.	.
*	*	*Xlig	*	*	*	*	*
1G	.	1E	.	4B\	.	4e\	.
.	.	.	.	4A/	.	4f\	.
.	.	.	.	4B\	.	4g\	.
.	.	.	.	4c\	.	4e\	.
=111-	=111-	=111-	=111-	=111-	=111-	=111-	=111-
1F	.	1D	-men	2d\	.	4f\	.
.	.	.	.	.	.	4g\	.
.	.	.	.	2A/	.	2a\	.
*	*	*lig	*	*	*	*	*
2.E\	.	1G	A-	1B	.	2g\	.
.	.	.	.	.	.	2.e\	.
4D/	.	.	.	.	.	.	.
=112-	=112-	=112-	=112-	=112-	=112-	=112-	=112-
2.C/	.	1E	.	2.e\	.	.	.
.	.	.	.	.	.	4d\	.
.	.	.	.	.	.	2.cny/	.
4BBny/	.	.	.	4d\	.	.	.
*	*	*Xlig	*	*	*	*	*
2.AA/	.	1F	.	2.c\	.	.	.
.	.	.	.	.	.	4A/	.
.	.	.	.	.	.	2.a\	.
4GG/	.	.	.	4B/	.	.	.
=113-	=113-	=113-	=113-	=113-	=113-	=113-	=113-
*custos:GG	*	*	*	*	*	*	*
1FF	.	1A	-men	2A/	.	.	.
.	.	.	.	.	.	4g\	.
.	.	.	.	2c\	.	2f\	.
!LO:LB:g=original	!	!	!	!	!	!	!
1GG	.	1.G	A-	1B-X	.	2e\	.
.	.	.	.	.	.	2d\	.
=114-	=114-	=114-	=114-	=114-	=114-	=114-	=114-
!	!	!	!	!	!	!LO:TX:b:t=P:problem=# below	!
0AA	.	.	.	0A	.	2c#X/	.
.	.	2F/	.	.	.	1d	.
.	.	1E	.	.	.	.	.
!	!	!	!	!	!	!LO:TX:b:t=P:problem=# below	!
.	.	.	.	.	.	2c#X/	.
=115-	=115-	=115-	=115-	=115-	=115-	=115-	=115-
1D	-men	[0D;l	-men.	1F#X	-men	1d	-men
*	*ij	*	*	*	*	*	*ij
0GG	A-	.	.	2.B-X\	A-	2.d\	A-
.	.	.	.	4A/	.	4cny/	.
=116-	=116-	=116-	=116-	=116-	=116-	=116-	=116-
.	.	0D_	.	1.G	.	1B-X	.
0.D;;l	-men	.	.	.	.	[1A;l	-men
*	*Xij	*	*	*	*	*	*Xij
!	!	!	!	!LO:TX:b:t=P:problem=# below	!	!	!
.	.	.	.	4F#X/	.	.	.
.	.	.	.	4E/	.	.	.
=117-	=117-	=117-	=117-	=117-	=117-	=117-	=117-
.	.	0D]	.	0F#X;;l	-men.	0A]	.
==	==	==	==	==	==	==	==
*-	*-	*-	*-	*-	*-	*-	*-
!!!system-decoration: [(s1,s2,s3,s4)]
!!!RDF**kern: > = above
!!!RDF**kern: < = below
!!!RDF**kern: l = terminal long
!!!ENC: Filip Voros
!!!END: 2022-01-16
!!!ENC: Marta Lawrence
!!!END: 2022-01-23
